; generated by PrusaSlicer 2.7.0+linux-x64-GTK3 on 2023-12-01 at 14:14:01 UTC

; 

; external perimeters extrusion width = 0.45mm
; perimeters extrusion width = 0.45mm
; infill extrusion width = 0.45mm
; solid infill extrusion width = 0.45mm
; top infill extrusion width = 0.45mm
; support material extrusion width = 0.35mm

M201 X1000 Y1000 Z200 E5000 ; sets maximum accelerations, mm/sec^2
M203 X300 Y300 Z2 E75 ; sets maximum feedrates, mm / sec
M204 S1500 T1500 ; sets acceleration (S) and retract acceleration (R), mm/sec^2
M205 X10.00 Y10.00 Z0.20 E2.50 ; sets the jerk limits, mm/sec
M205 S0 T0 ; sets the minimum extruding and travel feed rate, mm/sec
M190 S70 ; set bed temperature and wait for it to be reached
M104 S200 ; set temperature
;TYPE:Custom
G28 ; home all axes
G1 Z5 F5000 ; lift nozzle
M109 S200 ; set temperature and wait for it to be reached
G21 ; set units to millimeters
G90 ; use absolute coordinates
M82 ; use absolute distances for extrusion
G92 E0
; Filament gcode
M107
;LAYER_CHANGE
;Z:0.2
;HEIGHT:0.2
G1 E-1 F2400
G92 E0
G1 Z.2 F6000
G1 X9.696 Y16.348
G1 E1 F2400
M204 S500
;TYPE:Skirt/Brim
;WIDTH:0.45
G1 F2700
G1 X11.838 Y15.892 E1.07413
G1 X77.151 Y15.892 E3.2849
G1 X79.153 Y16.288 E3.35398
G1 X80.853 Y17.417 E3.42306
G1 X82.103 Y19.386 E3.502
G1 X82.948 Y21.791 E3.58828
G1 X83.627 Y24.199 E3.67297
G1 X84.118 Y26.447 E3.75086
G1 X84.476 Y28.716 E3.82861
G1 X84.738 Y31.495 E3.92309
G1 X84.807 Y34 E4.00791
G1 X84.746 Y36.078 E4.07828
G1 X84.565 Y38.237 E4.15162
G1 X84.198 Y40.811 E4.23963
G1 X83.72 Y43.116 E4.31931
G1 X83.208 Y45.051 E4.38706
G1 X82.553 Y47.086 E4.45942
G1 X81.884 Y48.527 E4.5132
G1 X81.117 Y49.536 E4.5561
G1 X80.029 Y50.473 E4.6047
G1 X78.885 Y51.092 E4.64873
G1 X77.669 Y51.467 E4.6918
G1 X76.303 Y51.605 E4.73827
G1 X13.225 Y51.589 E6.87339
G1 X12.322 Y51.478 E6.90419
G1 X11.432 Y51.254 E6.93525
G1 X10.703 Y50.97 E6.96173
G1 X9.952 Y50.562 E6.99066
G1 X8.944 Y49.762 E7.03422
G1 X8.492 Y49.269 E7.05686
G1 X8.013 Y48.593 E7.0849
G1 X7.618 Y47.844 E7.11356
G1 X7.174 Y46.355 E7.16615
G1 X7.091 Y45.407 E7.19836
G1 X6.582 Y21.259 E8.01592
G1 X6.936 Y19.249 E8.085
G1 X8.029 Y17.526 E8.15407
G1 X9.647 Y16.383 E8.22112
G1 X9.887 Y16.754 F6000
G1 F2700
G1 X10.078 Y16.63 E8.22883
G1 X11.838 Y16.299 E8.28945
G1 X77.151 Y16.299 E10.50022
G1 X79.07 Y16.695 E10.56654
G1 X80.676 Y17.818 E10.63287
G1 X81.72 Y19.522 E10.70051
G1 X82.557 Y21.903 E10.78594
G1 X83.229 Y24.287 E10.86978
G1 X83.718 Y26.52 E10.94716
G1 X84.074 Y28.779 E11.02457
G1 X84.331 Y31.509 E11.11739
G1 X84.4 Y33.988 E11.20133
G1 X84.339 Y36.062 E11.27156
G1 X84.16 Y38.202 E11.34425
G1 X83.798 Y40.732 E11.43076
G1 X83.327 Y43.012 E11.50956
G1 X82.815 Y44.947 E11.57731
G1 X82.166 Y46.96 E11.6489
G1 X81.538 Y48.313 E11.69939
G1 X80.87 Y49.203 E11.73706
G1 X79.9 Y50.067 E11.78103
G1 X78.733 Y50.715 E11.82621
G1 X77.583 Y51.069 E11.86694
G1 X76.303 Y51.198 E11.91049
G1 X13.501 Y51.194 E14.03626
G1 X11.937 Y50.979 E14.0897
G1 X10.912 Y50.618 E14.12648
G1 X10.17 Y50.218 E14.15501
G1 X9.231 Y49.473 E14.19558
G1 X8.809 Y49.013 E14.21671
G1 X8.362 Y48.384 E14.24283
G1 X7.988 Y47.676 E14.26993
G1 X7.576 Y46.289 E14.31891
G1 X7.498 Y45.389 E14.34949
G1 X6.989 Y21.251 E15.16671
G1 X7.345 Y19.324 E15.23304
G1 X8.434 Y17.695 E15.29937
G1 X9.837 Y16.786 E15.35596
G1 X10.056 Y17.161 F6000
G1 F2700
G1 X10.456 Y16.927 E15.37165
G1 X11.838 Y16.706 E15.41902
G1 X77.151 Y16.706 E17.62979
G1 X78.983 Y17.102 E17.69323
G1 X80.49 Y18.218 E17.7567
G1 X81.336 Y19.659 E17.81326
G1 X82.166 Y22.015 E17.89781
G1 X82.832 Y24.374 E17.98078
G1 X83.317 Y26.592 E18.05763
G1 X83.672 Y28.842 E18.13473
G1 X83.924 Y31.524 E18.22591
G1 X83.993 Y33.976 E18.30894
G1 X83.932 Y36.046 E18.37904
G1 X83.754 Y38.167 E18.45109
G1 X83.399 Y40.652 E18.53606
G1 X82.933 Y42.908 E18.61403
G1 X82.421 Y44.843 E18.68178
G1 X81.779 Y46.834 E18.75259
G1 X81.192 Y48.098 E18.79976
G1 X80.57 Y48.928 E18.83487
G1 X79.667 Y49.733 E18.87582
G1 X78.581 Y50.337 E18.91788
G1 X77.497 Y50.671 E18.95627
G1 X76.303 Y50.791 E18.99689
G1 X13.519 Y50.787 E21.12205
G1 X12.036 Y50.584 E21.17272
G1 X11.205 Y50.303 E21.20241
G1 X10.397 Y49.879 E21.2333
G1 X9.518 Y49.184 E21.27123
G1 X9.125 Y48.757 E21.29087
G1 X8.36 Y47.51 E21.34039
G1 X7.978 Y46.223 E21.38583
G1 X7.904 Y45.371 E21.41478
G1 X7.396 Y21.242 E22.2317
G1 X7.753 Y19.402 E22.29514
G1 X8.837 Y17.873 E22.35858
G1 X10.004 Y17.191 E22.40433
G1 X10.198 Y17.567 F6000
G1 F2700
G1 X10.826 Y17.242 E22.42826
G1 X11.838 Y17.114 E22.46279
G1 X77.151 Y17.114 E24.67356
G1 X78.892 Y17.509 E24.73399
G1 X80.293 Y18.616 E24.79443
G1 X80.953 Y19.796 E24.84019
G1 X81.696 Y21.884 E24.91521
G1 X82.373 Y24.22 E24.99753
G1 X82.917 Y26.665 E25.08231
G1 X83.294 Y29.092 E25.16545
G1 X83.518 Y31.539 E25.24862
G1 X83.586 Y33.965 E25.33077
G1 X83.514 Y36.219 E25.4071
G1 X83.336 Y38.258 E25.47638
G1 X83.035 Y40.366 E25.54846
G1 X82.592 Y42.577 E25.62479
G1 X81.962 Y44.96 E25.70822
G1 X81.277 Y47.015 E25.78154
G1 X80.64 Y48.189 E25.82675
G1 X79.82 Y49.093 E25.86806
G1 X79.331 Y49.471 E25.88898
G1 X78.429 Y49.959 E25.92369
G1 X77.411 Y50.273 E25.95975
G1 X76.303 Y50.384 E25.99744
G1 X13.542 Y50.38 E28.12183
G1 X12.136 Y50.189 E28.16986
G1 X11.363 Y49.928 E28.19748
G1 X10.633 Y49.547 E28.22535
G1 X9.805 Y48.896 E28.261
G1 X9.442 Y48.501 E28.27916
G1 X8.732 Y47.345 E28.32508
G1 X8.379 Y46.157 E28.36703
G1 X8.311 Y45.354 E28.39431
G1 X7.803 Y21.234 E29.21092
G1 X8.161 Y19.484 E29.27138
G1 X9.24 Y18.061 E29.33183
G1 X10.144 Y17.594 E29.36627
G1 X10.295 Y18.041 F6000
G1 F2700
G1 X11.838 Y17.521 E29.42138
G1 X77.151 Y17.521 E31.63215
G1 X78.796 Y17.915 E31.68941
G1 X80.084 Y19.013 E31.7467
G1 X80.569 Y19.932 E31.78187
G1 X81.313 Y22.02 E31.8569
G1 X81.982 Y24.332 E31.93837
G1 X82.516 Y26.738 E32.02179
G1 X82.89 Y29.136 E32.10394
G1 X83.111 Y31.553 E32.18609
G1 X83.179 Y33.953 E32.26736
G1 X83.108 Y36.184 E32.34291
G1 X82.931 Y38.21 E32.41175
G1 X82.632 Y40.307 E32.48345
G1 X82.194 Y42.496 E32.55901
G1 X81.576 Y44.834 E32.64087
G1 X80.902 Y46.857 E32.71305
G1 X80.313 Y47.947 E32.75499
G1 X79.549 Y48.79 E32.7935
G1 X79.098 Y49.137 E32.81276
G1 X78.278 Y49.581 E32.84432
G1 X77.325 Y49.875 E32.87808
G1 X76.303 Y49.977 E32.91285
G1 X13.56 Y49.974 E35.03663
G1 X12.235 Y49.795 E35.08189
G1 X11.522 Y49.553 E35.10738
G1 X10.85 Y49.203 E35.13303
G1 X10.092 Y48.607 E35.16567
G1 X9.758 Y48.245 E35.18234
G1 X9.104 Y47.18 E35.22464
G1 X8.781 Y46.09 E35.26312
G1 X8.718 Y45.336 E35.28873
G1 X8.21 Y21.225 E36.10504
G1 X8.57 Y19.572 E36.1623
G1 X9.64 Y18.262 E36.21955
G1 X10.238 Y18.06 E36.24092
G1 X10.338 Y18.386 F6000
G1 F2700
G1 X11.838 Y17.928 E36.29401
G1 X77.151 Y17.928 E38.50478
G1 X78.694 Y18.321 E38.55868
G1 X80.186 Y20.069 E38.63647
G1 X80.929 Y22.157 E38.71149
G1 X81.59 Y24.444 E38.79207
G1 X82.116 Y26.811 E38.87414
G1 X82.485 Y29.18 E38.95529
G1 X82.704 Y31.568 E39.03646
G1 X82.772 Y33.941 E39.11682
G1 X82.703 Y36.149 E39.19159
G1 X82.527 Y38.163 E39.26002
G1 X82.23 Y40.249 E39.33134
G1 X81.795 Y42.415 E39.40612
G1 X81.189 Y44.707 E39.48637
G1 X80.527 Y46.7 E39.55745
G1 X79.986 Y47.705 E39.59608
G1 X79.277 Y48.487 E39.63181
G1 X78.865 Y48.803 E39.64939
G1 X78.126 Y49.204 E39.67785
G1 X77.239 Y49.477 E39.70926
G1 X76.303 Y49.57 E39.7411
G1 X13.578 Y49.567 E41.86427
G1 X12.335 Y49.4 E41.90672
G1 X11.68 Y49.178 E41.93013
G1 X11.068 Y48.859 E41.95349
G1 X10.075 Y47.989 E41.99818
G1 X9.476 Y47.015 E42.03688
G1 X9.183 Y46.024 E42.07186
G1 X9.124 Y45.318 E42.09584
G1 X8.617 Y21.217 E42.91181
G1 X8.978 Y19.665 E42.96575
G1 X10.039 Y18.477 E43.01966
G1 X10.28 Y18.403 E43.02819
G1 X10.434 Y18.71 F6000
G1 F2700
G1 X11.838 Y18.335 E43.07738
G1 X77.151 Y18.335 E45.28815
G1 X78.585 Y18.728 E45.33848
G1 X79.802 Y20.205 E45.40326
G1 X80.6 Y22.463 E45.48432
G1 X81.242 Y24.725 E45.56391
G1 X81.715 Y26.883 E45.63869
G1 X82.08 Y29.224 E45.71889
G1 X82.297 Y31.582 E45.79904
G1 X82.365 Y33.93 E45.87855
G1 X82.297 Y36.114 E45.95251
G1 X82.123 Y38.115 E46.0205
G1 X81.827 Y40.191 E46.09148
G1 X81.396 Y42.333 E46.16544
G1 X80.847 Y44.427 E46.23871
G1 X80.151 Y46.543 E46.31411
G1 X79.788 Y47.272 E46.34168
G1 X79.005 Y48.184 E46.38237
G1 X77.974 Y48.826 E46.42348
G1 X77.153 Y49.079 E46.45256
G1 X76.287 Y49.163 E46.48201
G1 X13.596 Y49.16 E48.60403
G1 X12.434 Y49.005 E48.64371
G1 X11.286 Y48.515 E48.68596
G1 X10.392 Y47.733 E48.72616
G1 X9.848 Y46.849 E48.76129
G1 X9.584 Y45.958 E48.79275
G1 X9.529 Y45.237 E48.81723
G1 X9.024 Y21.208 E49.63076
G1 X9.387 Y19.766 E49.68109
G1 X10.392 Y18.753 E49.72939
G1 X10.687 Y19.087 F6000
G1 F2700
G1 X10.824 Y18.966 E49.73558
G1 X11.838 Y18.742 E49.77073
G1 X77.151 Y18.742 E51.9815
G1 X78.467 Y19.134 E52.02798
G1 X79.419 Y20.342 E52.08004
G1 X80.209 Y22.575 E52.16022
G1 X80.844 Y24.812 E52.23893
G1 X81.315 Y26.956 E52.31323
G1 X81.676 Y29.267 E52.3924
G1 X81.89 Y31.597 E52.4716
G1 X81.958 Y33.918 E52.5502
G1 X81.891 Y36.079 E52.62338
G1 X81.719 Y38.067 E52.69092
G1 X81.424 Y40.133 E52.76156
G1 X80.997 Y42.252 E52.83473
G1 X80.453 Y44.323 E52.90721
G1 X79.844 Y46.202 E52.97407
G1 X79.442 Y47.057 E53.00605
G1 X78.733 Y47.881 E53.04285
G1 X77.822 Y48.448 E53.07917
G1 X77.067 Y48.681 E53.10592
G1 X76.287 Y48.756 E53.13244
G1 X13.614 Y48.754 E55.25385
G1 X12.534 Y48.611 E55.29073
G1 X11.503 Y48.171 E55.32867
G1 X10.708 Y47.477 E55.36439
G1 X10.22 Y46.684 E55.39591
G1 X9.986 Y45.891 E55.4239
G1 X9.936 Y45.228 E55.44641
G1 X9.431 Y21.2 E56.25991
G1 X9.795 Y19.875 E56.30642
G1 X10.642 Y19.126 E56.34469
G1 E55.34469 F2400
G92 E0
G1 X10.642 Y19.126 F6000
G1 X16.818 Y27.301
G1 E1 F2400
;TYPE:Perimeter
;WIDTH:0.449999
G1 F2250
G1 X17.214 Y27.221 E1.01367
G1 X17.439 Y27.09 E1.02248
G1 X17.631 Y26.896 E1.03172
G1 X17.814 Y26.495 E1.04664
G1 X18.694 Y22.345 E1.19024
G1 X19.575 Y26.495 E1.33384
G1 X19.654 Y26.726 E1.3421
G1 X19.929 Y27.074 E1.35711
G1 X20.219 Y27.238 E1.36839
G1 X20.571 Y27.301 E1.38049
G1 X20.861 Y27.286 E1.39032
G1 X21.242 Y27.135 E1.40419
G1 X21.524 Y26.859 E1.41755
G1 X21.68 Y26.495 E1.43095
G1 X22.561 Y22.345 E1.57455
G1 X23.442 Y26.495 E1.71815
G1 X23.598 Y26.859 E1.73155
G1 X23.869 Y27.127 E1.74445
G1 X24.136 Y27.256 E1.75449
G1 X24.437 Y27.301 E1.76479
G1 X24.754 Y27.281 E1.77554
G1 X25.166 Y27.095 E1.79084
G1 X25.411 Y26.828 E1.80311
G1 X25.547 Y26.495 E1.81529
G1 X26.428 Y22.345 E1.95889
G1 X27.308 Y26.495 E2.10249
G1 X27.367 Y26.68 E2.10906
G1 X27.512 Y26.923 E2.11864
G1 X27.867 Y27.202 E2.13392
G1 X28.304 Y27.301 E2.14909
G1 X28.522 Y27.296 E2.15647
G1 X28.835 Y27.212 E2.16744
G1 X29.135 Y27.005 E2.17978
G1 X29.326 Y26.744 E2.19073
G1 X29.414 Y26.495 E2.19967
G1 X30.294 Y22.345 E2.34327
G1 X31.175 Y26.495 E2.48687
G1 X31.263 Y26.744 E2.49581
G1 X31.377 Y26.92 E2.50291
G1 X31.766 Y27.217 E2.51948
G1 X31.899 Y27.264 E2.52425
G1 X32.285 Y27.301 E2.53738
G1 X32.623 Y27.243 E2.54899
G1 X33.018 Y26.989 E2.56489
G1 X33.136 Y26.841 E2.5713
G1 X33.28 Y26.495 E2.58399
G1 X34.161 Y22.345 E2.72759
G1 X35.042 Y26.495 E2.87119
G1 X35.186 Y26.841 E2.88388
G1 X35.466 Y27.126 E2.8974
G1 X35.75 Y27.26 E2.90803
G1 X36.088 Y27.301 E2.91955
G1 X36.513 Y27.235 E2.93411
G1 X36.831 Y27.041 E2.94672
G1 X37.057 Y26.748 E2.95925
G1 X37.147 Y26.495 E2.96834
G1 X38.028 Y22.345 E3.11194
G1 X38.908 Y26.495 E3.25554
G1 X38.998 Y26.748 E3.26463
G1 X39.224 Y27.041 E3.27716
G1 X39.493 Y27.214 E3.28799
G1 X39.862 Y27.3 E3.30081
G1 X40.303 Y27.26 E3.3158
G1 X40.653 Y27.079 E3.32914
G1 X40.906 Y26.78 E3.3424
G1 X41.014 Y26.495 E3.35272
G1 X41.894 Y22.345 E3.49632
G1 X42.775 Y26.495 E3.63992
G1 X42.882 Y26.78 E3.65022
G1 X43.136 Y27.079 E3.6635
G1 X43.364 Y27.216 E3.6725
G1 X43.686 Y27.298 E3.68375
G1 X44.116 Y27.274 E3.69833
G1 X44.467 Y27.118 E3.71133
G1 X44.75 Y26.819 E3.72527
G1 X44.88 Y26.495 E3.73709
G1 X45.761 Y22.345 E3.88069
G1 X46.642 Y26.495 E4.02429
G1 X46.772 Y26.819 E4.03611
G1 X46.927 Y27.012 E4.04449
G1 X47.151 Y27.178 E4.05393
G1 X47.481 Y27.289 E4.06572
G1 X47.956 Y27.28 E4.0818
G1 X48.32 Y27.127 E4.09517
G1 X48.61 Y26.829 E4.10924
G1 X48.747 Y26.495 E4.12146
G1 X49.628 Y22.345 E4.26506
G1 X50.508 Y26.495 E4.40866
G1 X50.645 Y26.829 E4.42088
G1 X50.805 Y27.023 E4.42939
G1 X51.103 Y27.219 E4.44146
G1 X51.409 Y27.297 E4.45215
G1 X51.823 Y27.28 E4.46618
G1 X52.187 Y27.127 E4.47955
G1 X52.477 Y26.829 E4.49362
G1 X52.614 Y26.495 E4.50584
G1 X53.494 Y22.345 E4.64944
G1 X54.375 Y26.495 E4.79304
G1 X54.512 Y26.829 E4.80526
G1 X54.672 Y27.023 E4.81377
G1 X54.969 Y27.219 E4.82581
G1 X55.276 Y27.297 E4.83653
G1 X55.689 Y27.28 E4.85052
G1 X56.054 Y27.127 E4.86392
G1 X56.344 Y26.829 E4.87799
G1 X56.48 Y26.495 E4.8902
G1 X57.361 Y22.345 E5.0338
G1 X58.242 Y26.495 E5.1774
G1 X58.379 Y26.829 E5.18962
G1 X58.668 Y27.127 E5.20367
G1 X58.89 Y27.24 E5.2121
G1 X59.237 Y27.301 E5.22403
G1 X59.637 Y27.26 E5.23764
G1 X59.939 Y27.115 E5.24898
G1 X60.219 Y26.816 E5.26285
G1 X60.347 Y26.495 E5.27455
G1 X61.228 Y22.345 E5.41815
G1 X62.108 Y26.495 E5.56175
G1 X62.237 Y26.816 E5.57346
G1 X62.39 Y27.008 E5.58177
G1 X62.686 Y27.211 E5.59392
G1 X63.018 Y27.297 E5.60553
G1 X63.47 Y27.269 E5.62086
G1 X63.775 Y27.135 E5.63214
G1 X64.071 Y26.839 E5.64631
G1 X64.214 Y26.495 E5.65892
G1 X65.094 Y22.345 E5.80252
G1 X65.975 Y26.495 E5.94612
G1 X66.118 Y26.839 E5.95873
G1 X66.414 Y27.135 E5.9729
G1 X66.773 Y27.282 E5.98603
G1 X67.262 Y27.286 E6.00258
G1 X67.537 Y27.195 E6.01238
G1 X67.779 Y27.027 E6.02235
G1 X67.996 Y26.737 E6.03461
G1 X68.08 Y26.495 E6.04328
G1 X68.961 Y22.345 E6.18688
G1 X69.842 Y26.495 E6.33048
G1 X69.926 Y26.737 E6.33915
G1 X70.037 Y26.912 E6.34616
G1 X70.234 Y27.103 E6.35545
G1 X70.549 Y27.26 E6.36736
G1 X70.952 Y27.301 E6.38107
G1 X71.334 Y27.227 E6.39424
G1 X71.583 Y27.081 E6.40401
G1 X71.839 Y26.782 E6.41733
G1 X71.947 Y26.495 E6.42771
G1 X72.828 Y22.345 E6.57131
G1 X73.708 Y26.495 E6.71491
G1 X73.817 Y26.782 E6.7253
G1 X73.952 Y26.969 E6.73311
G1 X74.168 Y27.148 E6.74261
G1 X74.492 Y27.279 E6.75444
G1 X74.98 Y27.288 E6.77096
G1 X75.382 Y27.131 E6.78557
G1 X75.589 Y26.948 E6.79492
G1 X75.814 Y26.495 E6.81204
G1 X76.612 Y22.733 E6.94221
G1 X76.904 Y23.555 E6.97174
G1 X77.485 Y25.585 E7.04321
G1 X77.924 Y27.578 E7.11229
G1 X78.261 Y29.749 E7.18666
G1 X78.447 Y31.748 E7.25462
G1 X78.51 Y33.938 E7.32878
G1 X78.455 Y35.812 E7.39224
G1 X78.295 Y37.667 E7.45526
G1 X78.017 Y39.611 E7.52173
G1 X77.626 Y41.535 E7.58819
G1 X77.129 Y43.413 E7.65395
G1 X76.612 Y44.996 E7.71032
G1 X76.46 Y45.26 E7.72063
G1 X76.248 Y45.31 E7.728
G1 X13.832 Y45.31 E9.8407
G1 X13.406 Y45.262 E9.85521
G1 X13.45 Y44.843 E9.86947
G1 X14.287 Y41.338 E9.99145
G1 X14.74 Y38.176 E10.09957
G1 X14.813 Y37.634 E10.11808
G1 X14.992 Y33.82 E10.24732
G1 X14.93 Y31.616 E10.32195
G1 X14.784 Y29.846 E10.38207
G1 X14.75 Y29.449 E10.39556
G1 X14.432 Y27.158 E10.47385
G1 X13.997 Y24.956 E10.54983
G1 X13.441 Y22.787 E10.62562
G1 X13.253 Y22.188 E10.64687
G1 X14.794 Y22.188 E10.69903
G1 X15.708 Y26.495 E10.84806
G1 X15.783 Y26.715 E10.85593
G1 X16.074 Y27.083 E10.87181
G1 X16.388 Y27.251 E10.88386
G1 X16.759 Y27.294 E10.8965
G1 X16.779 Y26.884 F6000
G1 F2250
G1 X17.056 Y26.846 E10.90596
G1 X17.271 Y26.693 E10.91489
G1 X17.415 Y26.41 E10.92564
G1 X18.398 Y21.781 E11.08582
G1 X18.991 Y21.781 E11.10589
G1 X19.973 Y26.41 E11.26606
G1 X20.083 Y26.651 E11.27503
G1 X20.36 Y26.856 E11.28669
G1 X20.685 Y26.894 E11.29777
G1 X21.019 Y26.794 E11.30957
G1 X21.188 Y26.629 E11.31756
G1 X21.282 Y26.41 E11.32563
G1 X22.265 Y21.781 E11.48581
G1 X22.857 Y21.781 E11.50585
G1 X23.84 Y26.41 E11.66603
G1 X23.88 Y26.533 E11.67041
G1 X24.013 Y26.723 E11.67826
G1 X24.257 Y26.867 E11.68785
G1 X24.625 Y26.89 E11.70033
G1 X24.92 Y26.77 E11.71111
G1 X25.067 Y26.61 E11.71846
G1 X25.149 Y26.41 E11.72578
G1 X26.131 Y21.781 E11.88595
G1 X26.724 Y21.781 E11.90602
G1 X27.707 Y26.41 E12.0662
G1 X27.788 Y26.61 E12.0735
G1 X28.042 Y26.835 E12.08499
G1 X28.418 Y26.894 E12.09787
G1 X28.668 Y26.84 E12.10653
G1 X28.895 Y26.665 E12.11623
G1 X29.015 Y26.41 E12.12577
G1 X29.998 Y21.781 E12.28595
G1 X30.591 Y21.781 E12.30602
G1 X31.573 Y26.41 E12.46619
G1 X31.694 Y26.665 E12.47574
G1 X31.928 Y26.844 E12.48571
G1 X32.171 Y26.894 E12.49411
G1 X32.488 Y26.859 E12.50491
