; generated by PrusaSlicer 2.6.0+linux-x64-GTK3 on 2023-10-04 at 12:23:17 UTC

; 

; external perimeters extrusion width = 0.60mm
; perimeters extrusion width = 0.60mm
; infill extrusion width = 0.60mm
; solid infill extrusion width = 0.60mm
; top infill extrusion width = 0.60mm
; support material extrusion width = 0.60mm

M201 X1000 Y1000 Z200 E5000 ; sets maximum accelerations, mm/sec^2
M203 X300 Y300 Z2 E75 ; sets maximum feedrates, mm / sec
M204 S1500 T1500 ; sets acceleration (S) and retract acceleration (R), mm/sec^2
M205 X8.00 Y8.00 Z0.20 E2.50 ; sets the jerk limits, mm/sec
M205 S0 T0 ; sets the minimum extruding and travel feed rate, mm/sec
M190 S105 ; set bed temperature and wait for it to be reached
M104 S250 ; set temperature
;TYPE:Custom
G28 ; home all axes
G1 Z5 F5000 ; lift nozzle
M109 S250 ; set temperature and wait for it to be reached
G21 ; set units to millimeters
G90 ; use absolute coordinates
M82 ; use absolute distances for extrusion
G92 E0
; Filament gcode
M107
;LAYER_CHANGE
;Z:0.3
;HEIGHT:0.3
G1 E-1 F2400
G92 E0
G1 Z.3 F6000
G1 X18.367 Y27.072
G1 E1 F2400
M204 S500
;TYPE:Skirt/Brim
;WIDTH:0.6
G1 F2700
G1 X44.555 Y9.306 E3.1141
G1 X45.591 Y8.69 E3.19462
G1 X47.12 Y8.017 E3.30622
G1 X48.739 Y7.575 E3.41834
G1 X50.883 Y7.36 E3.56229
G1 X134.846 Y7.377 E9.17147
G1 X136.534 Y7.577 E9.28503
G1 X137.269 Y7.746 E9.33541
G1 X138.874 Y8.305 E9.44895
G1 X140.377 Y9.099 E9.56251
G1 X141.744 Y10.11 E9.6761
G1 X143.249 Y11.677 E9.82125
G1 X146.272 Y15.528 E10.14832
G1 X147.318 Y17.135 E10.27642
G1 X147.942 Y18.499 E10.37663
G1 X148.509 Y20.578 E10.52059
G1 X148.666 Y22.078 E10.62135
G1 X148.656 Y32.693 E11.33049
G1 X148.501 Y33.702 E11.39869
G1 X148.093 Y34.933 E11.48533
G1 X147.535 Y35.957 E11.56324
G1 X146.785 Y36.898 E11.64363
G1 X145.776 Y37.769 E11.73268
G1 X145.102 Y38.191 E11.7858
G1 X66.392 Y80.897 E17.76817
G1 X64.706 Y81.59 E17.88995
G1 X63.29 Y81.871 E17.98639
G1 X62.398 Y81.925 E18.04609
G1 X30.113 Y81.925 E20.2029
G1 X29.218 Y81.871 E20.2628
G1 X28.139 Y81.681 E20.33599
G1 X26.466 Y81.073 E20.45491
G1 X25.508 Y80.521 E20.52877
G1 X24.383 Y79.616 E20.62523
G1 X23.234 Y78.248 E20.74458
G1 X6.285 Y52.605 E22.79805
G1 X5.76 Y51.64 E22.87144
G1 X5.388 Y50.62 E22.94397
G1 X5.15 Y49.373 E23.02878
G1 X5.11 Y48.642 E23.07769
G1 X5.11 Y42.047 E23.51827
G1 X5.196 Y40.736 E23.60604
G1 X5.358 Y39.739 E23.67352
G1 X5.553 Y38.951 E23.72775
G1 X6.196 Y37.238 E23.84998
G1 X7.108 Y35.652 E23.9722
G1 X8.265 Y34.235 E24.09441
G1 X9.004 Y33.532 E24.16255
G1 X10.059 Y32.708 E24.25198
G1 X18.292 Y27.123 E24.9166
G1 E23.9166 F2400
G92 E0
G1 X18.593 Y27.566 F6000
G1 E1 F2400
G1 F2700
G1 X44.855 Y9.749 E3.1201
G1 X45.858 Y9.154 E3.19801
G1 X47.315 Y8.515 E3.3043
G1 X48.859 Y8.097 E3.41116
G1 X50.883 Y7.896 E3.54704
G1 X134.805 Y7.911 E9.15348
G1 X136.414 Y8.098 E9.26169
G1 X137.976 Y8.525 E9.36987
G1 X138.677 Y8.803 E9.42025
G1 X140.107 Y9.562 E9.5284
G1 X141.407 Y10.527 E9.63656
G1 X142.828 Y12.008 E9.77368
G1 X145.851 Y15.859 E10.10075
G1 X146.84 Y17.376 E10.22173
G1 X147.436 Y18.674 E10.31715
G1 X147.984 Y20.685 E10.45639
G1 X148.131 Y22.113 E10.55229
G1 X148.123 Y32.646 E11.25595
G1 X147.978 Y33.587 E11.31956
G1 X147.601 Y34.722 E11.39946
G1 X147.091 Y35.659 E11.47073
G1 X146.394 Y36.532 E11.54536
G1 X145.471 Y37.329 E11.62683
G1 X144.847 Y37.72 E11.67602
G1 X66.137 Y80.426 E17.65839
G1 X64.567 Y81.073 E17.77183
G1 X63.243 Y81.337 E17.86202
G1 X62.398 Y81.389 E17.91858
G1 X30.113 Y81.39 E20.07539
G1 X29.264 Y81.337 E20.13222
G1 X28.277 Y81.163 E20.19917
G1 X26.691 Y80.587 E20.31189
G1 X25.815 Y80.082 E20.37944
G1 X24.762 Y79.238 E20.46959
G1 X23.673 Y77.941 E20.58273
G1 X6.732 Y52.31 E22.63524
G1 X6.245 Y51.414 E22.70337
G1 X5.905 Y50.481 E22.76971
G1 X5.684 Y49.326 E22.84827
G1 X5.646 Y48.642 E22.89404
G1 X5.645 Y42.047 E23.33462
G1 X5.73 Y40.779 E23.41952
G1 X5.878 Y39.867 E23.48124
G1 X6.073 Y39.08 E23.53541
G1 X6.689 Y37.449 E23.65188
G1 X7.56 Y35.94 E23.76828
G1 X8.664 Y34.592 E23.88468
G1 X9.341 Y33.949 E23.94706
G1 X10.36 Y33.152 E24.03348
G1 X18.518 Y27.617 E24.69208
G1 E23.69208 F2400
G92 E0
G1 X18.819 Y28.06 F6000
G1 E1 F2400
G1 F2700
G1 X45.156 Y10.192 E3.12616
G1 X46.125 Y9.619 E3.20137
G1 X47.511 Y9.014 E3.3024
G1 X48.978 Y8.619 E3.40389
G1 X50.883 Y8.431 E3.53177
G1 X134.765 Y8.445 E9.13554
G1 X136.294 Y8.62 E9.23835
G1 X137.028 Y8.79 E9.28868
G1 X138.479 Y9.301 E9.39145
G1 X139.837 Y10.024 E9.49423
G1 X141.071 Y10.944 E9.59706
G1 X142.407 Y12.338 E9.72605
G1 X145.429 Y16.19 E10.05313
G1 X146.361 Y17.616 E10.16694
G1 X146.929 Y18.849 E10.25763
G1 X147.46 Y20.792 E10.39219
G1 X147.597 Y22.149 E10.48331
G1 X147.589 Y32.6 E11.18149
G1 X147.455 Y33.472 E11.24043
G1 X147.109 Y34.51 E11.31353
G1 X146.646 Y35.36 E11.37819
G1 X146.003 Y36.166 E11.44707
G1 X145.166 Y36.889 E11.52096
G1 X144.591 Y37.249 E11.56628
G1 X65.881 Y79.955 E17.54865
G1 X64.428 Y80.556 E17.65369
G1 X63.196 Y80.804 E17.73765
G1 X62.398 Y80.854 E17.79107
G1 X30.113 Y80.854 E19.94788
G1 X28.416 Y80.646 E20.0621
G1 X26.917 Y80.101 E20.16865
G1 X26.122 Y79.643 E20.22994
G1 X25.14 Y78.859 E20.31389
G1 X24.112 Y77.634 E20.42072
G1 X7.179 Y52.015 E22.47227
G1 X6.731 Y51.187 E22.53516
G1 X6.422 Y50.341 E22.59533
G1 X6.217 Y49.278 E22.66765
G1 X6.181 Y48.642 E22.71021
G1 X6.181 Y42.047 E23.15079
G1 X6.398 Y39.996 E23.28857
G1 X6.593 Y39.208 E23.3428
G1 X7.181 Y37.66 E23.45342
G1 X8.012 Y36.228 E23.56403
G1 X9.064 Y34.949 E23.67466
G1 X10.661 Y33.595 E23.81453
G1 X18.745 Y28.11 E24.46716
G1 E23.46716 F2400
G92 E0
G1 X19.045 Y28.554 F6000
G1 E1 F2400
G1 F2700
G1 X45.457 Y10.635 E3.13222
G1 X46.392 Y10.083 E3.20476
G1 X47.707 Y9.513 E3.30051
G1 X49.098 Y9.141 E3.3967
G1 X50.883 Y8.967 E3.51651
G1 X134.725 Y8.98 E9.11761
G1 X136.173 Y9.142 E9.21495
G1 X136.908 Y9.312 E9.26535
G1 X138.282 Y9.799 E9.36274
G1 X139.567 Y10.487 E9.46011
G1 X140.734 Y11.361 E9.55751
G1 X141.985 Y12.669 E9.67842
G1 X145.008 Y16.52 E10.00549
G1 X145.883 Y17.857 E10.11224
G1 X146.423 Y19.024 E10.19814
G1 X146.935 Y20.899 E10.32799
G1 X147.063 Y22.185 E10.41433
G1 X147.055 Y32.554 E11.10704
G1 X146.932 Y33.356 E11.16124
G1 X146.617 Y34.299 E11.22766
G1 X146.202 Y35.061 E11.28563
G1 X145.612 Y35.8 E11.3488
G1 X145.221 Y36.172 E11.38485
G1 X144.336 Y36.778 E11.45651
G1 X65.626 Y79.484 E17.43888
G1 X64.29 Y80.038 E17.5355
G1 X63.15 Y80.27 E17.61322
G1 X62.398 Y80.318 E17.66356
G1 X30.113 Y80.318 E19.82037
G1 X28.554 Y80.129 E19.92528
G1 X27.143 Y79.615 E20.0256
G1 X26.429 Y79.204 E20.08064
G1 X25.519 Y78.48 E20.15833
G1 X24.55 Y77.326 E20.259
G1 X7.626 Y51.72 E22.30949
G1 X7.216 Y50.961 E22.36712
G1 X6.939 Y50.202 E22.4211
G1 X6.717 Y48.642 E22.52637
G1 X6.717 Y42.047 E22.96695
G1 X6.918 Y40.124 E23.09612
G1 X7.113 Y39.337 E23.15029
G1 X7.674 Y37.871 E23.25515
G1 X8.464 Y36.515 E23.35999
G1 X9.463 Y35.306 E23.46476
G1 X10.961 Y34.038 E23.59587
G1 X18.971 Y28.604 E24.2425
G1 E23.2425 F2400
G92 E0
G1 X19.272 Y29.047 F6000
G1 E1 F2400
G1 F2700
G1 X45.758 Y11.079 E3.13815
G1 X46.659 Y10.548 E3.20802
G1 X47.902 Y10.011 E3.29848
G1 X49.217 Y9.663 E3.38935
G1 X50.883 Y9.502 E3.50117
G1 X134.684 Y9.514 E9.09953
G1 X136.053 Y9.664 E9.19153
G1 X136.788 Y9.833 E9.24191
G1 X138.085 Y10.297 E9.33393
G1 X139.297 Y10.95 E9.4259
G1 X140.398 Y11.778 E9.51793
G1 X141.564 Y13 E9.63077
G1 X144.587 Y16.851 E9.95784
G1 X145.404 Y18.097 E10.05738
G1 X145.917 Y19.199 E10.13859
G1 X146.41 Y21.006 E10.26372
G1 X146.528 Y22.22 E10.3452
G1 X146.522 Y32.508 E11.03249
G1 X146.409 Y33.241 E11.08204
G1 X146.103 Y34.138 E11.14536
G1 X145.672 Y34.889 E11.20321
G1 X145.165 Y35.493 E11.25589
G1 X144.081 Y36.307 E11.34645
G1 X65.37 Y79.013 E17.32888
G1 X64.151 Y79.521 E17.4171
G1 X63.103 Y79.737 E17.48858
G1 X62.398 Y79.783 E17.53578
G1 X30.113 Y79.783 E19.69259
G1 X28.693 Y79.611 E19.78815
G1 X27.368 Y79.13 E19.88232
G1 X26.737 Y78.766 E19.93099
G1 X25.898 Y78.102 E20.00247
G1 X24.989 Y77.019 E20.09693
G1 X8.073 Y51.424 E22.14651
G1 X7.701 Y50.735 E22.19882
G1 X7.456 Y50.062 E22.24667
G1 X7.252 Y48.642 E22.34251
G1 X7.252 Y42.047 E22.78309
G1 X7.438 Y40.253 E22.90358
G1 X7.633 Y39.465 E22.95781
G1 X8.166 Y38.082 E23.05683
G1 X8.916 Y36.803 E23.15588
G1 X9.862 Y35.663 E23.25484
G1 X11.262 Y34.481 E23.37724
G1 X19.197 Y29.098 E24.01781
G1 E23.01781 F2400
G92 E0
G1 X19.498 Y29.541 F6000
G1 E1 F2400
G1 F2700
G1 X46.058 Y11.522 E3.14415
G1 X46.925 Y11.012 E3.21135
G1 X48.098 Y10.51 E3.29659
G1 X49.337 Y10.185 E3.38216
G1 X50.883 Y10.038 E3.48591
G1 X134.644 Y10.048 E9.0816
G1 X135.933 Y10.186 E9.1682
G1 X136.668 Y10.355 E9.21858
G1 X137.887 Y10.795 E9.30516
G1 X139.027 Y11.412 E9.39176
G1 X140.062 Y12.194 E9.47842
G1 X141.143 Y13.33 E9.58318
G1 X144.165 Y17.182 E9.91026
G1 X144.925 Y18.338 E10.00268
G1 X145.411 Y19.374 E10.07913
G1 X145.885 Y21.113 E10.19954
G1 X145.994 Y22.256 E10.27625
G1 X146.002 Y32.15 E10.93722
G1 X145.888 Y33.12 E11.00247
G1 X145.649 Y33.84 E11.05315
G1 X145.23 Y34.585 E11.11025
G1 X144.728 Y35.172 E11.16185
G1 X143.825 Y35.837 E11.23677
G1 X65.115 Y78.543 E17.21914
G1 X64.012 Y79.004 E17.299
G1 X63.056 Y79.203 E17.36423
G1 X62.398 Y79.247 E17.40829
G1 X30.113 Y79.247 E19.5651
G1 X28.832 Y79.094 E19.65129
G1 X27.594 Y78.644 E19.73929
G1 X27.044 Y78.327 E19.7817
G1 X26.277 Y77.723 E19.84692
G1 X25.428 Y76.712 E19.93512
G1 X8.52 Y51.129 E21.98374
G1 X7.973 Y49.923 E22.07221
G1 X7.788 Y48.642 E22.15868
G1 X7.788 Y42.047 E22.59926
G1 X7.958 Y40.381 E22.71114
G1 X8.153 Y39.593 E22.76537
G1 X8.658 Y38.293 E22.85854
G1 X9.367 Y37.091 E22.95177
G1 X10.261 Y36.019 E23.04502
G1 X11.563 Y34.925 E23.15863
G1 X19.423 Y29.592 E23.79318
G1 E22.79318 F2400
G92 E0
G1 X19.724 Y30.035 F6000
G1 E1 F2400
G1 F2700
G1 X46.359 Y11.965 E3.15021
G1 X47.192 Y11.476 E3.21474
G1 X48.294 Y11.008 E3.29472
G1 X49.456 Y10.707 E3.37491
G1 X50.883 Y10.574 E3.47065
G1 X134.603 Y10.582 E9.0636
G1 X135.813 Y10.708 E9.14487
G1 X136.547 Y10.877 E9.19519
G1 X137.69 Y11.293 E9.27645
G1 X138.758 Y11.875 E9.3577
G1 X139.725 Y12.611 E9.43888
G1 X140.721 Y13.661 E9.53556
G1 X143.744 Y17.512 E9.86263
G1 X144.447 Y18.578 E9.94794
G1 X144.904 Y19.549 E10.01963
G1 X145.36 Y21.219 E10.13528
G1 X145.459 Y22.291 E10.2072
G1 X145.466 Y32.15 E10.86583
G1 X145.368 Y32.993 E10.92253
G1 X145.16 Y33.622 E10.96679
G1 X144.789 Y34.282 E11.01737
G1 X144.352 Y34.79 E11.06214
G1 X143.57 Y35.366 E11.12702
G1 X64.86 Y78.072 E17.10939
G1 X63.874 Y78.486 E17.18083
G1 X63.01 Y78.669 E17.23983
G1 X62.398 Y78.711 E17.28081
G1 X30.113 Y78.712 E19.43762
G1 X28.97 Y78.577 E19.51451
G1 X27.819 Y78.158 E19.59634
G1 X26.655 Y77.344 E19.69123
G1 X25.867 Y76.405 E19.77312
G1 X8.967 Y50.834 E21.82078
G1 X8.491 Y49.783 E21.89786
G1 X8.324 Y48.642 E21.9749
G1 X8.324 Y42.047 E22.41548
G1 X8.399 Y40.997 E22.4858
G1 X8.673 Y39.722 E22.57292
G1 X9.151 Y38.504 E22.66033
G1 X9.819 Y37.379 E22.74774
G1 X10.661 Y36.376 E22.83523
G1 X11.863 Y35.368 E22.94003
G1 X19.65 Y30.086 E23.56863
G1 E22.56863 F2400
G92 E0
G1 X19.95 Y30.529 F6000
G1 E1 F2400
G1 F2700
G1 X46.66 Y12.408 E3.15627
G1 X47.796 Y11.779 E3.24302
G1 X48.85 Y11.396 E3.31794
G1 X49.949 Y11.173 E3.39286
G1 X50.883 Y11.109 E3.4554
G1 X134.563 Y11.116 E9.04568
G1 X135.693 Y11.23 E9.12155
G1 X136.427 Y11.399 E9.17187
G1 X137.493 Y11.791 E9.24775
G1 X138.488 Y12.338 E9.3236
G1 X139.389 Y13.028 E9.39941
G1 X140.3 Y13.992 E9.48802
G1 X143.323 Y17.843 E9.81509
G1 X143.968 Y18.819 E9.89324
G1 X144.398 Y19.724 E9.96018
G1 X144.835 Y21.326 E10.07111
G1 X144.925 Y22.327 E10.13825
G1 X144.93 Y32.15 E10.79448
G1 X144.847 Y32.865 E10.84257
G1 X144.671 Y33.404 E10.88045
G1 X144.347 Y33.979 E10.92454
G1 X143.976 Y34.409 E10.96248
G1 X143.314 Y34.895 E11.01734
G1 X64.604 Y77.601 E16.99971
G1 X63.735 Y77.969 E17.06275
G1 X62.398 Y78.176 E17.15313
G1 X30.113 Y78.176 E19.30994
G1 X29.109 Y78.059 E19.37747
G1 X28.045 Y77.672 E19.45311
G1 X27.034 Y76.965 E19.53553
G1 X26.267 Y76.041 E19.61575
G1 X9.413 Y50.538 E21.65792
G1 X9.008 Y49.644 E21.72349
G1 X8.859 Y48.642 E21.79117
G1 X8.859 Y42.047 E22.23175
G1 X8.933 Y41.04 E22.2992
G1 X9.193 Y39.85 E22.38057
G1 X9.643 Y38.714 E22.4622
G1 X10.271 Y37.666 E22.54382
G1 X11.06 Y36.733 E22.62545
G1 X12.164 Y35.811 E22.72154
G1 X19.876 Y30.579 E23.34412
G1 E22.34412 F2400
G92 E0
G1 X21.013 Y40.453 F6000
G1 E1 F2400
;TYPE:Perimeter
;WIDTH:0.6
G1 F2250
G1 X20.87 Y40.542 E1.01125
G1 X20.475 Y40.981 E1.0507
G1 X20.243 Y41.384 E1.08177
G1 X20.044 Y42.062 E1.12897
G1 X20.024 Y42.356 E1.14866
G1 X20.024 Y48.269 E1.54368
G1 X12.766 Y48.269 E2.02855
G1 X12.766 Y42.103 E2.44047
G1 X12.818 Y41.461 E2.4835
G1 X12.96 Y40.89 E2.52281
G1 X13.193 Y40.35 E2.5621
G1 X13.509 Y39.854 E2.60139
G1 X13.902 Y39.416 E2.6407
G1 X14.404 Y39.013 E2.68371
G1 X48.811 Y15.67 E5.46135
G1 X49.323 Y15.376 E5.50079
G1 X49.826 Y15.179 E5.53688
G1 X50.352 Y15.06 E5.57291
G1 X50.941 Y15.016 E5.61237
G1 X134.327 Y15.016 E11.183
G1 X134.917 Y15.061 E11.22253
G1 X135.449 Y15.183 E11.25899
G1 X135.957 Y15.385 E11.29551
G1 X136.429 Y15.66 E11.332
G1 X136.855 Y16.003 E11.36854
G1 X137.259 Y16.445 E11.40854
G1 X140.208 Y20.203 E11.72767
G1 X140.494 Y20.62 E11.76145
G1 X140.715 Y21.047 E11.79357
G1 X140.894 Y21.547 E11.82905
G1 X140.991 Y22.057 E11.86373
G1 X141.024 Y22.562 E11.89754
G1 X141.024 Y31.285 E12.48028
G1 X140.947 Y31.26 E12.48569
G1 X140.632 Y31.036 E12.51151
G1 X140.346 Y30.612 E12.54568
G1 X140.197 Y30.131 E12.57932
G1 X140.052 Y29.449 E12.6259
G1 X139.813 Y28.747 E12.67544
G1 X139.653 Y28.426 E12.6994
G1 X139.282 Y27.879 E12.74355
G1 X139.071 Y27.637 E12.765
G1 X138.597 Y27.222 E12.80709
G1 X138.123 Y26.946 E12.84373
G1 X137.654 Y26.761 E12.87741
G1 X136.999 Y26.662 E12.92166
;WIDTH:0.557372
G1 X136.436 Y26.669 E12.95628
;WIDTH:0.513991
G1 X106.348 Y26.669 E14.64355
;WIDTH:0.518786
G1 X106.177 Y26.667 E14.65324
;WIDTH:0.54931
G1 X105.717 Y26.651 E14.68108
;WIDTH:0.579835
G1 X105.258 Y26.636 E14.7106
;WIDTH:0.6
G1 X99.007 Y26.626 E15.1282
G1 X98.087 Y26.651 E15.18968
;WIDTH:0.550528
G1 X97.351 Y26.669 E15.23432
;WIDTH:0.513991
G1 X67.893 Y26.669 E16.88626
;WIDTH:0.51983
G1 X67.733 Y26.676 E16.89536
;WIDTH:0.550132
G1 X67.268 Y26.732 E16.92374
;WIDTH:0.580435
G1 X66.803 Y26.788 E16.95389
;WIDTH:0.6
G1 X66.243 Y26.967 E16.99317
G1 X65.682 Y27.276 E17.03596
G1 X65.198 Y27.59 E17.0745
G1 X64.599 Y28.129 E17.12833
G1 X64.211 Y28.618 E17.17003
G1 X63.822 Y29.175 E17.21542
G1 X63.443 Y29.972 E17.27438
G1 X63.15 Y30.971 E17.34393
G1 X63.105 Y31.196 E17.35926
G1 X63.031 Y31.914 E17.40748
G1 X63.024 Y73.549 E20.18892
G1 X62.995 Y73.801 E20.20587
G1 X62.872 Y74.041 E20.22389
G1 X62.657 Y74.203 E20.24187
G1 X62.335 Y74.269 E20.26383
G1 X30.204 Y74.269 E22.41035
G1 X29.952 Y74.24 E22.4273
G1 X29.712 Y74.118 E22.44529
G1 X29.55 Y73.903 E22.46327
G1 X29.484 Y73.582 E22.48516
G1 X29.494 Y69.023 E22.78973
G1 X55.648 Y69.012 E24.53696
G1 X55.88 Y68.991 E24.55252
G1 X56.432 Y68.86 E24.59042
G1 X57.015 Y68.488 E24.63662
G1 X57.299 Y68.218 E24.6628
G1 X57.54 Y67.828 E24.69343
G1 X57.699 Y67.39 E24.72456
G1 X57.766 Y66.893 E24.75806
G1 X57.766 Y42.105 E26.41403
G1 X57.72 Y41.756 E26.43755
G1 X57.505 Y41.088 E26.48443
G1 X57.27 Y40.771 E26.51079
G1 X56.841 Y40.36 E26.55048
G1 X56.49 Y40.171 E26.57711
G1 X56 Y40.034 E26.6111
G1 X55.648 Y39.987 E26.63482
G1 X22.393 Y39.987 E28.85643
G1 X21.809 Y40.069 E28.89583
G1 X21.372 Y40.228 E28.9269
G1 X21.089 Y40.405 E28.9492
G1 E27.9492 F2400
G92 E0
G1 X21.262 Y40.928 F6000
G1 E1 F2400
G1 F2250
G1 X21.116 Y41.051 E1.01275
G1 X20.804 Y41.442 E1.04617
G1 X20.623 Y41.904 E1.07932
G1 X20.559 Y42.356 E1.10982
G1 X20.559 Y48.546 E1.52335
G1 X20.512 Y48.737 E1.53649
G1 X20.358 Y48.805 E1.54774
G1 X12.489 Y48.805 E2.07343
G1 X12.297 Y48.756 E2.08667
G1 X12.23 Y48.604 E2.09777
G1 X12.23 Y42.081 E2.53354
G1 X12.288 Y41.374 E2.58093
G1 X12.451 Y40.719 E2.62602
G1 X12.718 Y40.098 E2.67118
G1 X13.081 Y39.529 E2.71627
G1 X13.532 Y39.026 E2.7614
G1 X14.085 Y38.582 E2.80878
G1 X48.527 Y15.216 E5.58922
G1 X49.091 Y14.891 E5.63271
G1 X49.668 Y14.666 E5.67408
G1 X50.272 Y14.528 E5.71547
G1 X50.921 Y14.48 E5.75895
G1 X134.348 Y14.481 E11.33232
G1 X134.998 Y14.53 E11.37587
G1 X135.609 Y14.67 E11.41775
